!!!COM: Corelli, Arcangelo
!!!OTL: 
!!!ONM: Opus 3, No. 10
!!!OMV: 4
!!!CDT: 1653/2/17/-1713/1/8/
!!!OCY: Italia
**kern	**kern	**kern	**kern
*clefC	*clefC	*clefG	*clefG
*k[]	*k[]	*k[]	*k[]
*a:	*a:	*a:	*a:
*M4/4	*M4/4	*M4/4	*M4/4
=1	=1	=1	=1
1r	1r	2r	12ee
.	.	.	12cc
.	.	.	12ee
.	.	.	12dd
.	.	.	12b
.	.	.	12dd
.	.	12ee	12cc
.	.	12cc	12a
.	.	12ee	12cc
.	.	12dd	12b
.	.	12b	12g#
.	.	12dd	12b
=2	=2	=2	=2
4A	4A	12cc	12ee
.	.	12a	12cc
.	.	12cc	12ee
4E	4E	12b	12dd
.	.	12g#	12b
.	.	12b	12dd
4AA	4AA	12ee	12cc
.	.	12cc	12a
.	.	12ee	12cc
4r	4r	12dd	12b
.	.	12b	12g#
.	.	12dd	12b
=3	=3	=3	=3
2r	2r	12cc	12ee
.	.	12a	12cc
.	.	12cc	12ee
.	.	12b	12dd
.	.	12g#	12b
.	.	12b	12dd
4A	4A	12ee	12cc
.	.	12cc	12a
.	.	12ee	12cc
4E	4E	12dd	12b
.	.	12b	12g#
.	.	12dd	12b
=4	=4	=4	=4
4AA	4AA	12cc	4a
.	.	12a	.
.	.	12cc	.
2.r	2.r	12b	4e
.	.	12g#	.
.	.	12b	.
.	.	4a	12aa
.	.	.	12ff
.	.	.	12aa
.	.	4e	12gg
.	.	.	12ee
.	.	.	12gg
=5	=5	=5	=5
4d	4d	12aa	12ff
.	.	12ff	12dd
.	.	12aa	12ff
4A	4A	12gg	12ee
.	.	12ee	12cc#
.	.	12gg	12ee
4D	4D	12ff	12aa
.	.	12dd	12ff
.	.	12ff	12aa
4r	4r	12ee	12gg
.	.	12cc#	12ee
.	.	12ee	12gg
=6	=6	=6	=6
2r	2r	12aa	12ff
.	.	12ff	12dd
.	.	12aa	12ff
.	.	12gg	12ee
.	.	12ee	12cc#
.	.	12gg	12ee
4d	4d	12ff	12aa
.	.	12dd	12ff
.	.	12ff	12aa
4A	4A	12ee	12gg
.	.	12cc#	12ee
.	.	12ee	12gg
=7	=7	=7	=7
4D	4D	4a	4ff
4E	4E	4g#	2ee
2F	2F	2a	.
.	.	.	4dd
=8	=8	=8	=8
1E	1E	1g#	1ee
=9	=9	=9	=9
1r	1r	2r	12bb
.	.	.	12gg
.	.	.	12bb
.	.	.	12aa
.	.	.	12ff#
.	.	.	12aa
.	.	12bb	12gg
.	.	12gg	12ee
.	.	12bb	12gg
.	.	12aa	12ff#
.	.	12ff#	12dd#
.	.	12aa	12ff#
=10	=10	=10	=10
4E	4E	12gg	12bb
.	.	12ee	12gg
.	.	12gg	12bb
4BB	4BB	12ff#	12aa
.	.	12dd#	12ff#
.	.	12ff#	12aa
4EE	4EE	12bb	12gg
.	.	12gg	12ee
.	.	12bb	12gg
4r	4r	12aa	12ff#
.	.	12ff#	12dd#
.	.	12aa	12ff#
=11	=11	=11	=11
2r	2r	12gg	12bb
.	.	12ee	12gg
.	.	12gg	12bb
.	.	12ff#	12aa
.	.	12dd#	12ff#
.	.	12ff#	12aa
4E	4E	12gg	4gg
.	.	12ee	.
.	.	12gg	.
4C	4C	12aa	4ee
.	.	12gg	.
.	.	12aa	.
=12	=12	=12	=12
4BB	4BB	4bb	12dd#
.	.	.	12cc#
.	.	.	12b
4G	4G	4r	3bb
4c	4c	3ee	.
.	.	.	12aa
.	.	.	12gg
4F#	4F#	.	[4aa
.	.	12ff#	.
.	.	12ee	.
=13	=13	=13	=13
4B	4B	6dd#	12aa]
.	.	.	12bb
.	.	12b	12aa
4E	4E	12bb	12gg
.	.	12aa	12ff#
.	.	12gg	12ee
4AA	4AA	6ff#	12dd#
.	.	.	12b
.	.	12gg	12ee
4BB	4BB	4ff#	12ee
.	.	.	12ff#
.	.	.	12dd#
=14	=14	=14	=14
2EE	2EE	2ee	2ee
2r	2r	12ee	12gg
.	.	12cc	12ee
.	.	12dd	12ff
.	.	12ee	12gg
.	.	12dd	12ff
.	.	12cc	12ee
=15	=15	=15	=15
2r	2r	12dd	12ff
.	.	12b	12dd
.	.	12cc	12ee
.	.	12dd	12ff
.	.	12ee	12gg
.	.	12dd	12ff
4c	4c	4cc	4ee
4G	4G	4r	4r
=16	=16	=16	=16
4C	4C	12ee	12gg
.	.	12cc	12ee
.	.	12dd	12ff
2.r	2.r	12ee	12gg
.	.	12dd	12ff
.	.	12cc#	12ee
.	.	12a	12aa
.	.	12cc#	12ee
.	.	12dd	12ff
.	.	12ee	12gg
.	.	12dd	12ff
.	.	12cc#	12ee
=17	=17	=17	=17
4d	4d	4dd	4ff
4A	4A	4r	4r
4D	4D	12ff#	12aa
.	.	12dd	12ff#
.	.	12ee	12gg
4r	4r	12ff#	12aa
.	.	12ee	12gg
.	.	12dd#	12ff#
=18	=18	=18	=18
2r	2r	12b	12bb
.	.	12dd#	12ff#
.	.	12ee	12gg
.	.	12ff#	12aa
.	.	12ee	12gg
.	.	12dd#	12ff#
4e	4e	4ee	4gg
4B	4B	4r	4r
=19	=19	=19	=19
4c	4c	4ee	12aa
.	.	.	12bb
.	.	.	12aa
4B	4B	4dd	12gg
.	.	.	12aa
.	.	.	12gg
4A	4A	4cc	12ff
.	.	.	12aa
.	.	.	12ff
4G	4G	4b	12ee
.	.	.	12gg
.	.	.	12ee
=20	=20	=20	=20
4F#	4F#	4aa	16dd#
.	.	.	16cc#
.	.	.	8b
4E	4E	4gg	8.ee
.	.	.	16ee
2BB	2BB	2ff#	4.ee
.	.	.	8dd#
=21	=21	=21	=21
2EE	2EE	2ee	2ee
2r	2r	2r	12ee
.	.	.	12cc
.	.	.	12ee
.	.	.	12dd
.	.	.	12b
.	.	.	12dd
=22	=22	=22	=22
2r	2r	12ee	12cc
.	.	12cc	12a
.	.	12ee	12cc
.	.	12dd	12b
.	.	12b	12g#
.	.	12dd	12b
4A	4A	12cc	12ee
.	.	12a	12cc
.	.	12cc	12ee
4E	4E	12b	12dd
.	.	12g#	12b
.	.	12b	12dd
=23	=23	=23	=23
4AA	4AA	12ee	12cc
.	.	12cc	12a
.	.	12ee	12cc
2.r	2.r	12dd	12b
.	.	12b	12g#
.	.	12dd	12b
.	.	4cc	12aa
.	.	.	12ee
.	.	.	12aa
.	.	4e	12gg
.	.	.	12ee
.	.	.	12gg
=24	=24	=24	=24
4d	4d	12aa	12ff
.	.	12ff	12dd
.	.	12aa	12ff
4A	4A	12gg	12ee
.	.	12ee	12cc#
.	.	12gg	12ee
4D	4D	12ff	12aa
.	.	12dd	12ff
.	.	12ff	12aa
4r	4r	12ee	12gg
.	.	12cc#	12ee
.	.	12ee	12gg
=25	=25	=25	=25
2r	2r	12aa	12ff
.	.	12ff	12dd
.	.	12aa	12ff
.	.	12gg	12ee
.	.	12ee	12cc#
.	.	12gg	12ee
4D	4D	12ff	4a
.	.	12gg	.
.	.	12ff	.
4E	4E	12ee	4g#
.	.	12ff	.
.	.	12ee	.
=26	=26	=26	=26
4F	4F	12dd	4a
.	.	12ff	.
.	.	12dd	.
4E	4E	12cc	4g
.	.	12ee	.
.	.	12cc	.
4D	4D	12b-	4f
.	.	12dd	.
.	.	12b-	.
4C	4C	12a	4e
.	.	12cc	.
.	.	12a	.
=27	=27	=27	=27
4BB	4BB	16g#	4dd
.	.	16f#	.
.	.	8e	.
4AA	4AA	8.a	4cc
.	.	16a	.
2E	2E	4.a	2b
.	.	8g#	.
=28	=28	=28	=28
2AA	2AA	[4.a	3a
.	.	.	12aa
.	.	24a]	.
.	.	12ee	12gg
4D	4D	4a	12ff
.	.	.	12gg
.	.	.	12ff
4E	4E	4g#	12ee
.	.	.	12ff
.	.	.	12ee
=29	=29	=29	=29
4F	4F	4a	12dd
.	.	.	12ff
.	.	.	12dd
4E	4E	4g	12cc
.	.	.	12ee
.	.	.	12cc
4D	4D	4f	12b-
.	.	.	12dd
.	.	.	12b-
4C	4C	4e	12a
.	.	.	12cc
.	.	.	12a
=30	=30	=30	=30
4BB	4BB	4dd	16g#
.	.	.	16f#
.	.	.	8e
4AA	4AA	4cc	8.a
.	.	.	16a
2E	2E	2b	4.a
.	.	.	8g#
=31	=31	=31	=31
1AA	1AA	1a	1a
==	==	==	==
*-	*-	*-	*-
!!!RWG: This file only contains pitch and duration data.
!!!RWG: Transposing instruments are not transposed.
!!!RWG: Durations of rests and tied notes may be interpreted.
!!!RWG: Key is interpreted using the Humdrum key tool.
!!!SCA: 
!!!YOR: Chrysander Edition
!!!AGN: chamber
!!!AFT: stage1
!!!ENC: F. Bennion
!!!END: 1997/04/15
!!!AST: baroque
!!!YEC: Copyright 1994, Center for Computer Assisted Research in the Humanities
!!!YEM: Rights to all derivative electronic formats reserved.
!!!YEM: Refer to licensing agreement for further details.
!!!YEN: United States of America
!!!EED: W.B. Hewlett
!!!KEY: 4040009485
!!!EMD: Converted from MuseData to Humdrum Aug 9, 1999, by Bret Aarden using muse2kern.
!!!VTS: 4213442701
